!!!COM: Scarlatti, Domenico
!!!CDT: 1685///-1757///
!!!OTL: Sonata in C Major, K.200, L.54
!!!SCT: K. 200
!!!SCT: L. 054
!!!OMD: Allegro
**kern	**kern	**dynam
*staff2	*staff1	*staff1
*Icemba	*Icemba	*Icemba
*>[A,A,B,B]	*>[A,A,B,B]	*>[A,A,B,B]
*>A	*>A	*>A
*clefF4	*clefG2	*clefG2
*k[]	*k[]	*k[]
*C:	*C:	*C:
*M2/4	*M2/4	*M2/4
*MM126	*MM126	*MM126
=1-	=1-	=1-
4c'\ 4e'\	8ee'\L	f
.	(16dd\L	.
.	16ee\JJ	.
4d'\ 4f'\	16ff\LL	.
.	16gg\	.
.	16aa\	.
.	16bb\JJ	.
=2	=2	=2
4.e^\ 4.g^\	8ccc'\L)	.
.	8gg'\J	.
.	(4cc^\	.
8e\ 8g\	.	.
=3	=3	=3
8f'\ 8a'\L	16cc\LL	.
.	16ee\	.
8e'\ 8g'\J	16dd\	.
.	16cc\JJ	.
8d'\ 8f'\L	16dd\LL	.
.	16aa\	.
8G'\J	16gg\	.
.	16ff\JJ	.
=4	=4	=4
4.C^\ 4.c^\	16ee\LL	.
.	16dd\	.
.	16cc\	.
.	16b\JJ)	.
.	([4cc\	p
8e\ 8g\	.	.
=5	=5	=5
8f'\ 8a'\L	16cc\LL]	.
.	16ee\	.
8e'\ 8g'\J	16dd\	.
.	16cc\JJ	.
8d'\ 8f'\L	16dd\LL	.
.	16aa\	.
8G'\J	16gg\	.
.	16ff\JJ	.
=6	=6	=6
4.c\	16ee\LL	<
.	16dd\	(
.	16cc\	(
.	16b\JJ	(
.	16cc\LL	(
.	16dd\	(
8d\	16ee\	(
.	16ff\JJ	[
=7	=7	=7
4.e\	16gg\LL	mf
.	16ee\	.
.	16aa\	.
.	16gg\JJ	.
.	16ff\LL	.
.	16ee\	.
8f\	16dd\	.
.	16cc\JJ	.
=8	=8	=8
[4G\	16dd\LL	.
.	16cc\	.
.	16b\	.
.	16a\JJ	.
16G\LL]	8g'/L)	.
16f\	.	.
16e\	(8g/J	p
16d\JJ	.	.
=9	=9	=9
16e\LL	8cc'\L)	.
16d\	.	.
16c\	8dd'\J	.
16B\JJ	.	.
8c'\L	(16ee'\LL	.
.	32ff\L	.
.	32gg\J	.
8F'\J	16ff\	.
.	16ee\JJ	.
=10	=10	=10
[4G^\	16dd\LL	.
.	16cc\	.
.	16b\	.
.	16a\JJ	.
16G\LL]	8g'/L)	.
16f\	.	.
16e\	(8g/J	f
16d\JJ	.	.
=11	=11	=11
16e\LL	8cc'\L)	.
16d\	.	.
16c\	8dd'\J	.
16B\JJ	.	.
8c'\L	16ee'\LL	.
.	(32ff\L	.
.	32gg\J	.
8F'\J	16ff\	.
.	16ee\JJ	.
=12	=12	=12
4GG\ 4G\	4dd\)	.
4r	8r	.
.	(8d/ 8f/	>
=13	=13	=13
8r	8c#/) 8e/L	]
8B-'\L	8d'/ 8f'/	p
8B-'\	8c#'/ 8e'/	.
8B-'\J	8d'/ 8f'/J	.
=14	=14	=14
8r	8e'/ 8g'/	.
8G'\L	4f/ 4a/	mf
8G'\	.	.
8G'\J	[8g/ [8b-/	<
=15	=15	=15
(4A\	8g/] 8b-/L]	(
.	(16f/ 16a/L	(
.	16e/ 16g/JJ	(
4AA/)	8d/) 8f/L	(
.	8c#'/ 8e'/J	[
=16	=16	=16
8D/L	4d/ 4f/	>
8DD/	.	)
8D/J	8r	)
8r	(8e/ 8g/	)
=17	=17	=17
8r	8d#/) 8f#/L	]
8c'\L	8e'/ 8g'/	p
8c'\	8d#'/ 8f#'/	.
8c'\J	8e'/ 8g'/J	.
=18	=18	=18
8r	8f#/ 8a/	.
8A'\L	4g/ 4b/	mf
8A'\	.	.
8A'\J	[8a/ [8cc/	.
=19	=19	=19
8r	8a/] 8cc/L]	.
8B'\L	(16g/ 16b/L	.
.	16f#/ 16a/JJ	.
8B'\	8e/) 8g/L	.
8B\J	(8d#/ 8f#/J	.
=20	=20	=20
4.E\	8e'/)	.
.	(8ee\	f
.	16b\LL	.
.	16b\	.
8E\ 8e\	16cc\	.
.	16dd\JJ	.
=21	=21	=21
8E'\ 8d'\L	16g#/LL	.
.	16g#/	.
8E'\ 8c'\	16a/	.
.	16b/JJ	.
8E'\ 8B'\	16d/LL	.
.	16d/	.
8E'\ 8A'\J	16e/	.
.	16f/JJ	.
=22	=22	=22
4E\ 4G#\	8e'/)	.
.	(8ee\	p
8r	16b\LL	.
.	16b\	.
8E\ 8e\	16cc\	.
.	16dd\JJ	.
=23	=23	=23
8E'\ 8d'\L	16g#/LL	.
.	16g#/	.
8E'\ 8c'\	16a/	.
.	16b/JJ	.
8E'\ 8B'\	16d/LL	.
.	16d/	.
8E'\ 8A'\J	16e/	.
.	16f/JJ	.
=24	=24	=24
4E\ 4G#\	8e'/L)	.
.	8dd'/J	f
8r	(24cc\LL	.
.	24b\	.
.	24a\J	.
8E\ 8d\	8g#\J	.
=25	=25	=25
4F'\ 4d'\	8a\L)	.
.	8dd'\J	.
8r	(24cc\LL	.
.	24b\	.
.	24a\J	.
8E\ 8d\	8g#\J	.
=26	=26	=26
8F'\ 8d'\L	8a'\L)	.
8D'\J	8ff'\J	.
8G#\L	(16ee\LL	.
.	16dd\	.
8E\J	16cc\	.
.	16b\JJ	.
=27	=27	=27
4A'\	8cc'\)	.
.	(8ee\	.
8r	16a\LL	.
.	16a\	.
8D\ 8d\	16b\	.
.	16cc\JJ	.
=28	=28	=28
8D'\ 8c'\L	16f#/LL	.
.	16f#/	.
8D'\ 8B'\	16g/	.
.	16a/JJ	.
8D'\ 8A'\	16c/LL	.
.	16c/	.
8D'\ 8G'\J	16d/	.
.	16e/JJ	.
=29	=29	=29
4D\ 4F#\	8d'/)	.
.	(8dd\	p
8r	16a\LL	.
.	16a\	.
8D\ 8d\	16b\	.
.	16cc\JJ	.
=30	=30	=30
8D\ 8c\L	16f#/LL	.
.	16f#/	.
8D'\ 8B'\	16g/	.
.	16a/JJ	.
8D'\ 8A'\	16c/LL	.
.	16c/	.
8D'\ 8G'\J	16d/	.
.	16e/JJ	.
=31	=31	=31
4D\ 4F#\	8d'/L)	.
.	8cc'/J	f
8r	(24b/LL	.
.	24a/	.
.	24g/J	.
8D\ 8c\	8f#/J	.
=32	=32	=32
4E'\ 4c'\	8g'/L)	.
.	8cc'/J	.
8r	(24b/LL	.
.	24a/	.
.	24g/J	.
8D\ 8c\	8f#/J	.
=33	=33	=33
8E'\ 8c'\L	8g'/L)	.
8C'\J	8ee'/J	.
8F#\L	(16dd\LL	.
.	16cc\	.
8D\J	16b\	.
.	16a\JJ	.
=34	=34	=34
4.G\	16b\LL	.
.	16g\	.
.	16a\	.
.	16b\JJ	.
.	16cc\LL	.
.	16dd\	.
8A\	16ee\	.
.	16ff#\JJ	.
=35	=35	=35
4B\	16gg\LL	.
.	16ff#\	.
.	16ee\	.
.	16dd\JJ	.
4c\	16cc\LL	.
.	16b\	.
.	16a\	.
.	16g\JJ)	.
=36	=36	=36
8r	4d/	.
(8DD/ 8D/L	.	.
8EE/) 8E/	8r	.
8FF#'/ 8F#'/J	8dd'\	.
=37	=37	=37
8r	(32b\LLL	.
.	32cc\	.
.	32dd\	.
.	32ee\JJ	.
8GG\ (8G\L	8dd^\J	.
8BB'\ 8B'\)	8gg'\L)	.
8D'\ 8d'\J	8dd'\J	.
=38	=38	=38
8r	(32b\LLL	.
.	32cc\	.
.	32dd\	.
.	32ee\JJ	.
8GG\ (8G\L	8dd^\J	.
8BB'\ 8B'\)	8gg'\L)	.
8D'\ 8d'\J	8dd'\J	.
=39	=39	=39
8G'\ 8g'\L	(16b\LL	.
.	16dd\	.
(8c\J	16cc\	.
.	16a\JJ	.
8d'\L)	8b'/L)	.
8D'\J	8a'/J	.
=40	=40	=40
8r	4g^/	p
8GG'\ 8G'\L	.	.
8BB'\ 8B'\	8r	.
8D'\ 8d'\J	8dd'\	.
=41	=41	=41
8r	(32b\LLL	.
.	32cc\	.
.	32dd\	.
.	32ee\JJ	.
8GG\ (8G\L	8dd^\J	.
8BB'\ 8B'\)	8gg'\L)	.
8D'\ 8d'\J	8dd'\J	.
=42	=42	=42
8r	(32b\LLL	.
.	32cc\	.
.	32dd\	.
.	32ee\JJ	.
8GG\ (8G\L	8dd^\J	.
8BB'\ 8B'\)	8gg'\L)	.
8D'\ 8d'\J	8dd'\J	.
=43	=43	=43
8G'\ 8g'\L	(16b\LL	.
.	16dd\	.
(8c\J	16cc\	.
.	16a\JJ	.
8d'\L)	8b'/L)	.
8D'\J	8a'/J	.
=44	=44	=44
4GG'\ 4G'\	8g'/L	f
.	(16b/L	.
.	16cc/JJ	.
8r	16dd/LL	.
.	16g/	.
8D'\ 8d'\	16a/	.
.	16f#/JJ	.
=45	=45	=45
8BB\ 8B\L	8g'/L)	.
8GG'\ 8G'\J	(16b/L	.
.	16cc/JJ	.
8r	16dd/LL	.
.	16g/	.
8D'\ 8d'\	16a/	.
.	16f#/JJ	.
=46	=46	=46
8BB'\ 8B'\L	8g'\L)	.
8GG'\ 8G'\J	(16a\L	.
.	16b\JJ	.
8r	16cc\LL	.
.	16dd\	.
8AA'\ 8A'\	16ee\	.
.	16ff#\JJ	.
=47	=47	=47
8BB'\ 8B'\L	16gg\LL	.
.	16dd\	.
8C'\ 8c'\	16ee\	.
.	16cc\JJ	.
8D'\ 8d'\	16b\LL	.
.	16gg\	.
8C'\ 8c'\J	16a\	.
.	16ff#\JJ	.
=48	=48	=48
8BB'\ 8B'\L	16gg\LL	.
.	16dd\	.
8C'\ 8c'\	16ee\	.
.	16cc\JJ	.
8D'\ 8d'\	16b\LL	.
.	16gg\	.
8C'\ 8c'\J	16a\	.
.	16ff#\JJ	.
=49	=49	=49
8BB'\ 8B'\L	16gg\LL	.
.	16dd\	.
8C'\ 8c'\	16ee\	.
.	[16g\JJ	.
8D'\ 8d'\	8g/L])	.
8D'\J	8f#'/J	.
=50	=50	=50
4GG^\ 4G^\	4g/	.
4r	4r	.
=51:|!|:	=51:|!|:	=51:|!|:
*>B	*>B	*>B
8r	(16b\LL	p
.	16a\	.
8G\ 8g\L	16b\	.
.	16cc\JJ	.
8G\ 8g\	16dd\LL	.
.	16ee\	.
8G\ 8g\J	16ff#\	.
.	16gg\JJ)	.
=52	=52	=52
8G\ (8g\L	2a/	>
8G\ 8fn\)	.	)
8G\ 8f\	.	)
8G\ 8f\J	.	)
=53	=53	=53
8G\ 8e\L	(16g/LL	)
.	16f/	)
8G\ 8e\	16g/	)
.	16a/JJ	)
8G\ 8e\	16b\LL	)
.	16cc\	)
8G\ 8e\J	16dd\	)
.	16ee\JJ)	]
=54	=54	=54
8G\ (8e\L	2f/	>
8G\ 8d\)	.	)
8G\ 8d\	.	)
8G\ 8d\J	.	)
=55	=55	=55
8G\ 8c\L	(16e/LL	)
.	16d/	)
8G\ 8c\	16e/	)
.	16f/JJ	)
8G\ 8c\	16g/LL	)
.	16a/	)
8G\ 8c\J	16b/	)
.	16cc/JJ	)
=56	=56	=56
8B\ 8d\L	8dd/L)	)
8B\ 8d\	8g'/J	)
8B\ 8d\	(4f/	)
8B\ 8d\J	.	)
=57	=57	=57
8c'\L	8e'/L)	]
8c\J	(24cc/L	p
.	24b/	.
.	24cc/JJ	.
8B'\ 8d'\L	8dd'/L)	.
8B\ 8d\J	(24f/L	mf
.	24e/	.
.	24f/JJ	.
=58	=58	=58
8c'\L	8e'/L)	.
8c\J	(24cc/L	p
.	24b/	.
.	24cc/JJ	.
8B'\ 8d'\L	8dd'/L)	.
8B\ 8d\J	(24f/L	mf
.	24e/	.
.	24f/JJ	.
=59	=59	=59
8c'\L	8e'/)	.
8c\	(4cc\	>
8d\	.	)
8d\J	[8b-\	)
=60	=60	=60
8e\L	16b-\LL]	)
.	16cc\JJ	)
(8e\	4dd\	)
8c\)	.	)
(8c\J	16cc\LL	)
.	16b-\JJ)	)
=61	=61	=61
*	*^	*
8f'\L)	32a/LLL	4r	)
.	32b-/	.	)
.	32cc/	.	]
.	32dd/JJJ	.	>
(8f\	4cc/	.	)
8e\	.	4g\	)
8c\J)	8b-/	.	)
=62	=62	=62	=62
8f'\L	(32a/LLL	4r	)
.	32b-/	.	)
.	32cc/	.	)
.	32dd/JJJ	.	]
8f\	4cc/	.	>
8e\	.	4g\	)
8c\J	8b-/	.	)
*	*v	*v	*
=63	=63	=63
8f'\L	8a'\L	]
8f\	(8dd\)	mf
8e\	8cc#\	.
8d\J	8dd\J	.
=64	=64	=64
8c#\L	8.ee\L	.
8Bn\	.	.
.	32ff\LL	.
.	32gg\JJJ	.
8A\	8ff\L	.
8c#\J	8ee\J)	.
=65	=65	=65
8d\L	(16ff\LL	.
.	16ee\J	.
8D\J	8dd\J)	f
4DD'/	8r	.
.	(8dd^\	f
=66	=66	=66
8r	8aa'\L)	.
(8d'\L	8a'\ (8cc'\	p
8d'\	8g'\ 8b'\	.
8d'\J)	8f#'\ 8a'\J)	.
=67	=67	=67
*	*^	*
8g'\L	(32b/LLL	4r	.
.	32cc/	.	.
.	32dd/	.	.
.	32ee/JJJ	.	.
(8g\	4dd/	.	mf
8f#\	.	4a\	>
8d\J)	8cc/)	.	)
=68	=68	=68	=68
8g'\L	(32b/LLL	4r	)
.	32cc/	.	)
.	32dd/	.	)
.	32ee/JJJ	.	]
8g\	4dd/	.	>
8f#\	.	4a\	)
8d\J	8cc/	.	)
*	*v	*v	*
=69	=69	=69
8g'\L	8b'\L)	]
8g\	(8ee\	mf
8f#\	8dd#\	.
8e\J	8ee\J	.
=70	=70	=70
8d#\L	8.ff#\L	.
8c#\	.	.
.	32gg\LL	.
.	32aa\JJJ	.
8B\	8gg\L	.
8d#\J	8ff#\J)	.
=71	=71	=71
8e\L	(16gg\LL	.
.	16ff#\J	.
(8E\J	8ee\J)	f
4EE'/)	4r	.
=72	=72	=72
8E\ (8d\L	2ff\ 2gg#\	p
8E'\ 8d'\	.	.
8E'\ 8d'\	.	.
8E'\ (8d'\J)	.	.
=73	=73	=73
8E'\ 8c'\L	2ee\ 2aa\	.
8E'\ 8c'\	.	.
8E'\ 8c'\	.	.
8E'\ 8c'\J)	.	.
=74	=74	=74
8E'\ 8G#'\ (8B'\L	2dd\ 2bb\	.
8E'\ 8G#'\ 8B'\	.	.
8E'\ 8G#'\ 8B'\	.	.
8E'\ 8G#'\ 8B'\J)	.	.
=75	=75	=75
8AA'\ (8A'\L	16ee\ (16ccc\LL	.
.	16bb\J	.
8AA'\ 8A'\	8aa\J)	.
8AA'\ 8A'\	4r	.
8AA'\ 8A'\J)	.	.
=76	=76	=76
8G'\ (8e'\L	2cc#\ 2bb-\	.
8G'\ 8e'\	.	.
8G'\ 8e'\	.	.
8G\ 8e\J)	.	.
=77	=77	=77
8F'\ (8d'\L	2dd\ 2aa\	.
8F'\ 8d'\	.	.
8F'\ 8d'\	.	.
8F'\ 8d'\J)	.	.
=78	=78	=78
8E'\ (8c#'\L	2ee\ 2gg\	.
8E'\ 8c#'\	.	.
8E'\ 8c#'\	.	.
8E'\ 8c#'\J)	.	.
=79	=79	=79
4.D\ 4.d\	(16ff\LL	.
.	16dd\	.
.	16aa\	.
.	16gg\JJ	.
.	16ff\LL	.
.	16ee\	.
8F\	16dd\	.
.	16cc\JJ	.
=80	=80	=80
8G\L	8b'\)	.
8G\ 8B\	(4aa\	>
8A\ 8c\	.	)
8B'\ 8d'\J	16gg\LL	)
.	16ff\JJ	)
=81	=81	=81
8C'\ 8c'\L	4.ee\	)
8C'\ 8c'\	.	)
8E'\ 8c'\	.	)
8E'\ 8c'\J	16ff\LL	)
.	16gg\JJ	)
=82	=82	=82
8F'\ (8c'\L	16ff\LL	)
.	16ee\	)
8F'\ 8c'\J)	16dd\	)
.	16cc\JJ	)
[8A\L	8.cc\L	)
8A\J]	.	)
.	32b\LL	)
.	32cc\JJJ)	]
=83	=83	=83
(8G\L	4dd\	>
8GG\J	.	)
4G\)	8r	]
.	8gg\	p
=84	=84	=84
8r	(32ee\LLL	.
.	32ff\	.
.	32gg\	.
.	32aa\JJ	.
8C\ (8c\L	8gg^\J	.
8E'\ 8e'\)	(8ccc'\L)	.
8G'\ 8g'\J	8gg'\J)	.
=85	=85	=85
8r	(32ee\LLL	.
.	32ff\	.
.	32gg\	.
.	32aa\JJ	.
8C\ (8c\L	8gg^\J	.
8E'\ 8e'\)	8ccc'\L)	.
8G'\ 8g'\J	8gg'\J	.
*clefG2	*	*
=86	=86	=86
8c'/ 8cc'/L	(16ee\LL	.
.	16gg\	.
(8f/J	16ff\	.
.	16dd\JJ	.
8g'/L)	8ee'\L)	.
8G'/J	8dd'\J	.
*clefF4	*	*
=87	=87	=87
8r	4cc^\	f
(8CC/ 8C/L	.	.
8EE'/) 8E'/	8r	.
8GG'/ 8G'/J	8gg'\	.
=88	=88	=88
8r	(32ee\LLL	.
.	32ff\	.
.	32gg\	.
.	32aa\JJ	.
(8CC/ 8C/L	8gg^\J	.
8EE/) 8E/	8ccc'\L)	.
8GG'/ 8G'/J	8gg'\J	.
=89	=89	=89
8r	(32ee\LLL	.
.	32ff\	.
.	32gg\	.
.	32aa\JJ	.
(8CC/ 8C/L	8gg^\J	.
8EE/) 8E/	8ccc'\L)	.
8GG'/ 8G'/J	8gg'\J	.
=90	=90	=90
8C'\ 8c'\L	(16ee\LL	.
.	16gg\	.
(8F\J	16ff\	.
.	16dd\JJ	.
8G'\L)	8ee'\L)	.
8GG'\J	8dd'\J	.
=91	=91	=91
4CC'/ 4C'/	(8cc'\L	f
.	16ee\L	.
.	16ff\JJ	.
8r	16gg\LL	.
.	16cc\	.
8G'\ 8g'\	16dd\	.
.	16b\JJ	.
=92	=92	=92
8E'\ 8e'\L	8cc'\L)	.
8C'\ 8c'\J	(16ee\L	.
.	16ff\JJ	.
8r	16gg\LL	.
.	16cc\	.
8G'\ 8g'\	16dd\	.
.	16b\JJ	.
=93	=93	=93
8E'\ 8e'\L	(8cc'\L)	.
8C'\ 8c'\J	16dd\L	.
.	16ee\JJ	.
8r	16ff\LL	.
.	16gg\	.
8DD'/ 8D'/	16aa\	.
.	16bb\JJ	.
=94	=94	=94
8EE'/ 8E'/L	16ccc\LL	.
.	16gg\	.
8FF'/ 8F'/	16aa\	.
.	16ff\JJ	.
8GG'/ 8G'/	16ee\LL	.
.	16ccc\	.
8FF'/ 8F'/J	16dd\	.
.	16bb\JJ	.
=95	=95	=95
8EE'/ 8E'/L	16ccc\LL	.
.	16gg\	.
8FF'/ 8F'/	16aa\	.
.	16ff\JJ	.
8GG'/ 8G'/	16ee\LL	.
.	16ccc\	.
8FF'/ 8F'/J	16dd\	.
.	16bb\JJ	.
=96	=96	=96
8EE'/ 8E'/L	16ccc\LL	.
.	16gg\	.
8FF'/ 8F'/	16aa\	.
.	16cc\JJ)	.
8GG'/ 8G'/	8cc\L	.
8FF'/ 8F'/J	8b'\J	.
=97	=97	=97
8EE'/ 8E'/L	(16cc/LL	.
.	16g/	.
8FF'/ 8F'/	16a/	.
.	[16c/JJ)	.
8GG'/ 8G'/	8c/L]	.
8GG'/J	8B'/J	.
=98	=98	=98
4CC^/ 4C^/	4c/	.
4r	4r	.
==	==	==
*-	*-	*-
!!!ENC: Craig Stuart Sapp
!!!END: 2004/06/20/
